X: 1659
T: Salına Salına
C: Muzaffer Sarısözen
O: Turkey
F: http://compmusic.upf.edu/node/140
N: gerdaniye--turku--aksak--salina_salina--denizli
N: makam= gerdaniye
N: form= turku
N: usul= aksak = 9/8
M: 9/8
L: 1/16
K: C _2/4B ^3/4f  
Q: 1/4=204
%%MIDI tuningsystem comma53
c4 B2A2 B2c2 d4 c2 | e2 d2d2 c2B2 A2G6  | \
w:  ARANAĞME  |   | 
c4 B2A2 B2c2 d2B2 A2 | 
w:   | 
A8A4z4z2  | c4 B2A2 B2c2 d4 c2 | e2 d2d2 c2B2 A2G6  | \
w:   |  ARANAĞME  |   | 
c4 B2A2 B2c2 d2B2 A2 | 
w:   | 
A8A4z4z2  | z4 {f}g2g2 g2f2 g2g2 f2 | \
w:   |  *  Sa lı na  *  sa  | 
g2 gag2 f2g2 f2g2 e4  | 
w:  lı na  *  *  da  gir *  miş   | 
d2e2 e4 e4 e2d2 c2 | d12z4z2  | d2e2 e4 e4 e2d2 c2 | \
w:  ge li nim  bah ça  |  ya   |  ge li nim  bah ça  | 
d12z4z2  | c4 B2A2 B2c2 d4 c2 | 
w:  ya    |  Al  kır *  mı *  zı   | 
e2 d2d2 c2B2 A2G6  | c2c2 B2A2 B2c2 d2B2 A2 | \
w:  gül  *  top *  la *  mış   |  ge li nim  *  boh *  ça  | 
A12z4z2  | c4 B2A2 B2c2 d4 c2 | 
w:  ya    |  Al  kır *  mı *  zı   | 
e2 d2d2 c2B2 A2G6  | c2c2 B2A2 B2c2 d2B2 A2 | \
w:  gül  *  top *  la *  mış   |  ge li nim  *  boh *  ça  | 
A12z4z2  | z4 g2g2 g2f2 g4 f2 | 
w:  ya    |  A na sı  *  da   | 
g2 gag2 f2g2 f2g4e2  | d2e2 e2e2 e4 e2d2 c2 | \
w:  sa tı  *  sa tı ver *  miş   |  bir  *  ke se  ak ça  | 
d12z4z2  | d2e2 e2e2 e4 e2d2 c2 | 
w:  ya   |  bir  *  ke se  ak ça  | 
d12z4z2  | c4 B2A2 B2c2 d4 c2 | e2 d2d2 c2B2 A2G6  | \
w:  ya    |  Ağ la ma  ge li nim   |  sız *  la ma  ge li nim   | 
c4 B2A2 B2c2 d2B2 A2 | 
w:  ben  gi ne  ge *  li  | 
A12z4z2  | c4 B2A2 B2c2 d4 c2 | e2 d2d2 c2B2 A2G6  | \
w:  rim    |  Ağ la ma  ge li nim   |  sız *  la ma  ge li nim   | 
c4 B2A2 B2c2 d2B2 A2 | 
w:  ben  gi ne  ge *  li  | 
A12z4z2  | c4 B2A2 B2c2 d4 c2 | e2 d2d2 c2B2 A2G6  | \
w:  rim    |  ARANAĞME  |   | 
c4 B2A2 B2c2 d2B2 A2 | 
w:   | 
A8A4z4z2  | c4 B2A2 B2c2 d4 c2 | e2 d2d2 c2B2 A2G6  | \
w:   |  ARANAĞME  |   | 
c4 B2A2 B2c2 d2B2 A2 | 
w:   | 
A8A4z4z2  | z4 {f}g2g2 g2f2 g2g2 f2 | \
w:   |  *  Sa lı na  *  sa  | 
g2 gag2 f2g2 f2g2 e4  | 
w:  lı na  *  *  da  gir *  miş   | 
d2e2 e4 e4 e2d2 c2 | d12z4z2  | d2e2 e4 e4 e2d2 c2 | \
w:  ge li nim  bah ça  |  ya   |  ge li nim  bah ça  | 
d12z4z2  | c4 B2A2 B2c2 d4 c2 | 
w:  ya    |  Al  kır *  mı *  zı   | 
e2 d2d2 c2B2 A2G6  | c2c2 B2A2 B2c2 d2B2 A2 | \
w:  gül  *  top *  la *  mış   |  ge li nim  *  boh *  ça  | 
A12z4z2  | c4 B2A2 B2c2 d4 c2 | 
w:  ya    |  Al  kır *  mı *  zı   | 
e2 d2d2 c2B2 A2G6  | c2c2 B2A2 B2c2 d2B2 A2 | \
w:  gül  *  top *  la *  mış   |  ge li nim  *  boh *  ça  | 
A12z4z2  | z4 g2g2 g2f2 g4 f2 | 
w:  ya    |  A na sı  *  da   | 
g2 gag2 f2g2 f2g4e2  | d2e2 e2e2 e4 e2d2 c2 | \
w:  sa tı  *  sa tı ver *  miş   |  bir  *  ke se  ak ça  | 
d12z4z2  | d2e2 e2e2 e4 e2d2 c2 | 
w:  ya   |  bir  *  ke se  ak ça  | 
d12z4z2  | c4 B2A2 B2c2 d4 c2 | e2 d2d2 c2B2 A2G6  | \
w:  ya    |  Ağ la ma  ge li nim   |  sız *  la ma  ge li nim   | 
c4 B2A2 B2c2 d2B2 A2 | 
w:  ben  gi ne  ge *  li  | 
A12z4z2  | c4 B2A2 B2c2 d4 c2 | e2 d2d2 c2B2 A2G6  | \
w:  rim    |  Ağ la ma  ge li nim   |  sız *  la ma  ge li nim   | 
c4 B2A2 B2c2 d2B2 A2 | 
w:  ben  gi ne  ge *  li  | 
A12z4z2  | |


